src/pos-icons/chart-donut.svg

<svg height="24" viewBox="0 0 24 24" width="24" xmlns="http://www.w3.org/2000/svg"><path d="m13 2.05v3.03c3.39.49 6 3.39 6 6.92 0 .9-.18 1.75-.5 2.54l2.62 1.53c.56-1.24.88-2.62.88-4.07 0-5.18-3.95-9.45-9-9.95m-1 16.95a7 7 0 0 1 -7-7c0-3.53 2.61-6.43 6-6.92v-3.03c-5.06.5-9 4.76-9 9.95a10 10 0 0 0 10 10c3.3 0 6.23-1.61 8.05-4.09l-2.6-1.53c-1.28 1.62-3.24 2.62-5.45 2.62z"/></svg>

<?xml version="1.0" encoding="UTF-8"?><!DOCTYPE svg PUBLIC "-//W3C//DTD SVG 1.1//EN" "http://www.w3.org/Graphics/SVG/1.1/DTD/svg11.dtd"><svg xmlns="http://www.w3.org/2000/svg" xmlns:xlink="http://www.w3.org/1999/xlink" version="1.1" id="mdi-chart-donut" width="24" height="24" viewBox="0 0 24 24"><path d="M13,2.05V5.08C16.39,5.57 19,8.47 19,12C19,12.9 18.82,13.75 18.5,14.54L21.12,16.07C21.68,14.83 22,13.45 22,12C22,6.82 18.05,2.55 13,2.05M12,19A7,7 0 0,1 5,12C5,8.47 7.61,5.57 11,5.08V2.05C5.94,2.55 2,6.81 2,12A10,10 0 0,0 12,22C15.3,22 18.23,20.39 20.05,17.91L17.45,16.38C16.17,18 14.21,19 12,19Z" /></svg>
